packages/kaspersky-hexa-ui-icons/src/iconsSVGs/28x20/FlagTr.svg

<svg width="28" height="20" viewBox="0 0 28 20" fill="none" xmlns="http://www.w3.org/2000/svg">
<g clip-path="url(#clip0_5138_1897)">
<rect width="28" height="20" rx="2" fill="white"/>
<mask id="mask0_5138_1897" style="mask-type:luminance" maskUnits="userSpaceOnUse" x="0" y="0" width="28" height="20">
<rect width="28" height="20" rx="2" fill="white"/>
</mask>
<g mask="url(#mask0_5138_1897)">
<rect width="28" height="20" fill="#E92434"/>
<path fill-rule="evenodd" clip-rule="evenodd" d="M19.0209 10.7684L17.796 12.2533L17.8795 10.3302L16.0887 9.62423L17.9435 9.1093L18.0615 7.18799L19.1244 8.79287L20.9881 8.31142L19.7903 9.81822L20.8241 11.442L19.0209 10.7684Z" fill="white"/>
<path fill-rule="evenodd" clip-rule="evenodd" d="M17.4028 6.31589C16.5555 5.70011 15.4903 5.33333 14.3333 5.33333C11.5719 5.33333 9.33333 7.42267 9.33333 10C9.33333 12.5773 11.5719 14.6667 14.3333 14.6667C15.4903 14.6667 16.5555 14.2999 17.4028 13.6841C16.3049 15.0935 14.5916 16 12.6667 16C9.35296 16 6.66667 13.3137 6.66667 10C6.66667 6.68629 9.35296 4 12.6667 4C14.5916 4 16.3049 4.90649 17.4028 6.31589Z" fill="white"/>
</g>
</g>
<defs>
<clipPath id="clip0_5138_1897">
<rect width="28" height="20" fill="white"/>
</clipPath>
</defs>
</svg>

<svg xmlns="http://www.w3.org/2000/svg" width="28" height="20" fill="none" viewBox="0 0 28 20"><g clip-path="url(#a)"><rect width="28" height="20" fill="#fff" rx="2"/><mask id="b" width="28" height="20" x="0" y="0" maskUnits="userSpaceOnUse" style="mask-type:luminance"><rect width="28" height="20" fill="#fff" rx="2"/></mask><g mask="url(#b)"><path fill="#e92434" d="M0 0h28v20H0z"/><path fill="#fff" fill-rule="evenodd" d="m19.0209 10.7684-1.2249 1.4849.0835-1.9231-1.7908-.706 1.8548-.5149.118-1.9213 1.0629 1.6049 1.8637-.4815-1.1978 1.5068 1.0338 1.6238z" clip-rule="evenodd"/><path fill="#fff" fill-rule="evenodd" d="M17.4028 6.3159c-.8473-.6158-1.9125-.9826-3.0695-.9826-2.7614 0-5 2.0894-5 4.6667s2.2386 4.6667 5 4.6667c1.157 0 2.2222-.3668 3.0695-.9826C16.3049 15.0935 14.5916 16 12.6667 16c-3.3137 0-6-2.6863-6-6s2.6863-6 6-6c1.9249 0 3.6382.9065 4.7361 2.3159" clip-rule="evenodd"/></g></g><defs><clipPath id="a"><path fill="#fff" d="M0 0h28v20H0z"/></clipPath></defs></svg>
